!! 00000] TT[WS
!!!OTL: Wangxiang wobin
!!!ARE: Asia, China, Shanxi Pianguan
!! Ethnic Group: Han
!! WI, 263
!!!SCT: J0311
!!!YEM: Copyright 1995, estate of Helmut Schaffrath.
**kern
*ICvox
*Ivox
*M2/4
*k[b-e-]
*B-:
{8ff
8a
8cc
8cc
=1
8cc
8ff
8dd
8ff
=2
8cc
16dd
16cc
8b-
8cc
=3
8dd
16cc
16b-
4a}
=4
{8.f
16g
4b-
=5
8cc
8dd
8cc
8b-
=6
8.cc
16f
8b-
8g
=7
2f}
==
!!!AGN: Xiaodiao, Qingge
!!!ONB: ESAC (Essen Associative Code) Database: CHINA
!!!AMT: simple duple
!!!AIN: vox
!!!EED: Helmut Schaffrath
!!!EEV: 1.0
*-
